svg/bug_stop.svg

<svg xmlns="http://www.w3.org/2000/svg" viewBox="0 0 24 24"><path d="M19 7h-2.81c-.45-.8-1.07-1.5-1.82-2L16 3.41 14.59 2l-2.17 2.17a6 6 0 0 0-2.83 0L7.41 2 6 3.41 7.62 5c-.75.5-1.36 1.21-1.81 2H3v2h2.09c-.06.33-.09.66-.09 1v1H3v2h2v1c0 .34.03.67.09 1H3v2h2.81A6 6 0 0 0 13 19.65V19c0-2.54 1.61-4.8 4-5.65V13h2v-2h-2v-1c0-.34-.03-.67-.09-1H19zm-6 8H9v-2h4zm0-4H9V9h4zm3 5h6v6h-6z"/></svg>

<svg xmlns="http://www.w3.org/2000/svg" id="mdi-bug-stop" viewBox="0 0 24 24"><path d="M19 7H16.19C15.74 6.2 15.12 5.5 14.37 5L16 3.41L14.59 2L12.42 4.17C11.96 4.06 11.5 4 11 4S10.05 4.06 9.59 4.17L7.41 2L6 3.41L7.62 5C6.87 5.5 6.26 6.21 5.81 7H3V9H5.09C5.03 9.33 5 9.66 5 10V11H3V13H5V14C5 14.34 5.03 14.67 5.09 15H3V17H5.81C7.26 19.5 10.28 20.61 13 19.65V19C13 16.46 14.61 14.2 17 13.35V13H19V11H17V10C17 9.66 16.97 9.33 16.91 9H19V7M13 15H9V13H13V15M13 11H9V9H13V11M16 16H22V22H16V16Z" /></svg>
